X: 20378
T: John D. Burgess
R: jig
M: 6/8
K: Dmajor
|:fAA eAA|dcB A3|d2e f2a|agf ede|
fAA eAA|dcB A3|Adf a2g|fge d2e:|
|:fed edc|dcB A3|d2e f2a|agf ede|
fAA gfe|d3 c2B|Adf a2g|f2e d3:|
|:Adf a2g|fde f3|Ace g2f|eBc dcB|
Adf a2g|fde f3|Adf a2g|f2e d3:|
aaa a2g|f2x d2x|d2e faa|agf efg|
aaa a2g|f3 dcB|Adf a2g|f2e d3|
aaa a2g|f2x d2x|d2e faa|agf efg|
fAA gfe|d3 c2B|Adf a2g|f2e d3||

